svg/fluentui-system-icons/ic_fluent_book_search_20_filled.svg

<svg width="20" height="20" viewBox="0 0 20 20" fill="none" xmlns="http://www.w3.org/2000/svg">
<path d="M6 2C4.89543 2 4 2.89543 4 4V16C4 17.1046 4.89543 18 6 18H15.5C15.7761 18 16 17.7761 16 17.5C16 17.2239 15.7761 17 15.5 17H6C5.44772 17 5 16.5523 5 16H15C15.5523 16 16 15.5523 16 15V4C16 2.89543 15.1046 2 14 2H6ZM11.5858 9.8787L12.8536 11.1464C13.0488 11.3417 13.0488 11.6583 12.8536 11.8536C12.6583 12.0488 12.3417 12.0488 12.1464 11.8536L10.8787 10.5858C10.4835 10.8476 10.0095 11 9.5 11C8.11929 11 7 9.88071 7 8.5C7 7.11929 8.11929 6 9.5 6C10.8807 6 12 7.11929 12 8.5C12 9.00954 11.8476 9.48348 11.5858 9.8787ZM8 8.5C8 7.67157 8.67157 7 9.5 7C10.3284 7 11 7.67157 11 8.5C11 9.32843 10.3284 10 9.5 10C8.67157 10 8 9.32843 8 8.5Z" fill="#212121"/>
</svg>

<svg xmlns="http://www.w3.org/2000/svg" width="20" height="20"><path d="M6 2a2 2 0 0 0-2 2v12a2 2 0 0 0 2 2h9.5a.5.5 0 0 0 0-1H6a1 1 0 0 1-1-1h10a1 1 0 0 0 1-1V4a2 2 0 0 0-2-2H6Zm5.586 7.879 1.268 1.267a.5.5 0 0 1-.708.708l-1.267-1.268a2.5 2.5 0 1 1 .707-.707ZM8 8.5a1.5 1.5 0 1 1 3 0 1.5 1.5 0 0 1-3 0Z"/></svg>
